airbyte-config/init/src/main/resources/icons/gitlab.svg

<?xml version="1.0" encoding="utf-8"?>
<!-- Generator: Adobe Illustrator 24.2.1, SVG Export Plug-In . SVG Version: 6.00 Build 0)  -->
<svg version="1.1" xmlns="http://www.w3.org/2000/svg" xmlns:xlink="http://www.w3.org/1999/xlink" x="0px" y="0px"
	 viewBox="0 0 1266 559" style="enable-background:new 0 0 1266 559;" xml:space="preserve">
<style type="text/css">
	.st0{fill:#FAFAFA;}
	.st1{fill:#F0F0F0;}
	.st2{fill:#FFFFFF;}
	.st3{fill:#E24329;}
	.st4{fill:#FCA326;}
	.st5{fill:#FC6D26;}
	.st6{fill:#8C929D;}
	.st7{fill:#2E2E2E;}
	.st8{fill:none;stroke:#FCA326;stroke-width:16;stroke-linecap:round;stroke-linejoin:round;stroke-miterlimit:10;}
	.st9{fill:none;stroke:#FC6D26;stroke-width:16;stroke-linecap:round;stroke-linejoin:round;stroke-miterlimit:10;}
	.st10{fill:none;stroke:#E24329;stroke-width:16;stroke-linecap:round;stroke-linejoin:round;stroke-miterlimit:10;}
	.st11{fill:none;stroke:#F0F0F0;stroke-miterlimit:10;}
	.st12{fill:#231F20;}
	.st13{fill:none;stroke:#231F20;stroke-width:16;stroke-linecap:round;stroke-linejoin:round;stroke-miterlimit:10;}
	.st14{display:none;}
	.st15{display:inline;opacity:0.1;fill:#E828E3;}
	.st16{display:inline;}
	.st17{opacity:0.1;fill:#E828E3;}
	.st18{font-family:'SourceSansPro-Semibold';}
	.st19{font-size:24px;}
	.st20{display:inline;fill:#DB3B21;}
	.st21{display:inline;fill:#FC6D26;}
	.st22{display:inline;fill:#2E2E2E;}
	.st23{display:inline;fill:#6E49CB;}
	.st24{display:inline;fill:#380D75;}
	.st25{display:inline;fill:#FCA121;}
	.st26{opacity:0.6;fill:none;stroke:#231F20;stroke-width:2;stroke-miterlimit:10;stroke-dasharray:12,6;}
	.st27{fill:none;stroke:#444444;stroke-width:1.5339;stroke-miterlimit:10;}
</style>
<g id="logo_art">
	<g>
		<g>
			<path id="path14_3_" class="st6" d="M839.7,198.192h-21.8l0.1,162.5h88.3v-20.1h-66.5L839.7,198.192L839.7,198.192z"/>
			<g id="g24_3_" transform="translate(977.327440, 143.284396)">
				<path id="path26_3_" class="st6" d="M13,188.892c-5.5,5.7-14.6,11.4-27,11.4c-16.6,0-23.3-8.2-23.3-18.9
					c0-16.1,11.2-23.8,35-23.8c4.5,0,11.7,0.5,15.4,1.2v30.1H13z M-9.6,90.392c-17.6,0-33.8,6.2-46.4,16.7l7.7,13.4
					c8.9-5.2,19.8-10.4,35.5-10.4c17.9,0,25.8,9.2,25.8,24.6v7.9c-3.5-0.7-10.7-1.2-15.1-1.2c-38.2,0-57.6,13.4-57.6,41.4
					c0,25.1,15.4,37.7,38.7,37.7c15.7,0,30.8-7.2,36-18.9l4,15.9h15.4v-83.2C34.3,107.992,22.9,90.392-9.6,90.392L-9.6,90.392z"/>
			</g>
			<g id="g28_3_" transform="translate(1099.766904, 143.128930)">
				<path id="path30_3_" class="st6" d="M-17.7,201.192c-8.2,0-15.4-1-20.8-3.5v-67.3v-7.8c7.4-6.2,16.6-10.7,28.3-10.7
					c21.1,0,29.2,14.9,29.2,39C19,185.092,5.9,201.192-17.7,201.192 M-8.5,90.592c-19.5,0-30,13.3-30,13.3v-21l-0.1-27.8h-9.8h-11.5
					l0.1,158.5c10.7,4.5,25.3,6.9,41.2,6.9c40.7,0,60.3-26,60.3-70.9C41.6,114.092,23.5,90.592-8.5,90.592"/>
			</g>
			<g id="g32_5_" transform="translate(584.042117, 143.630796)">
				<path id="path34_5_" class="st6" d="M18.3,72.192c19.3,0,31.8,6.4,39.9,12.9l9.4-16.3c-12.7-11.2-29.9-17.2-48.3-17.2
					c-46.4,0-78.9,28.3-78.9,85.4c0,59.8,35.1,83.1,75.2,83.1c20.1,0,37.2-4.7,48.4-9.4l-0.5-63.9v-7.5v-12.6H4v20.1h38l0.5,48.5
					c-5,2.5-13.6,4.5-25.3,4.5c-32.2,0-53.8-20.3-53.8-63C-36.7,93.292-14.4,72.192,18.3,72.192"/>
			</g>
			<g id="g36_4_" transform="translate(793.569045, 142.577463)">
				<path id="path38_4_" class="st6" d="M-37.7,55.592H-59l0.1,27.3v11.2v6.5v11.4v65v0.2c0,26.3,11.4,43.9,43.9,43.9
					c4.5,0,8.9-0.4,13.1-1.2v-19.1c-3.1,0.5-6.4,0.7-9.9,0.7c-17.9,0-25.8-9.2-25.8-24.6v-65h35.7v-17.8h-35.7L-37.7,55.592
					L-37.7,55.592z"/>
			</g>
			<path id="path40_33_" class="st6" d="M680.4,360.692h21.3v-124h-21.3V360.692L680.4,360.692z"/>
			<path id="path42_3_" class="st6" d="M680.4,219.592h21.3v-21.3h-21.3V219.592L680.4,219.592z"/>
		</g>
		<g>
			<path id="path50_5_" class="st3" d="M292.778,434.892L292.778,434.892l62.199-191.322H230.669L292.778,434.892L292.778,434.892z"
				/>
			<path id="path66_12_" class="st4" d="M143.549,243.57L143.549,243.57l-18.941,58.126c-1.714,5.278,0.137,11.104,4.661,14.394
				l163.509,118.801L143.549,243.57L143.549,243.57z"/>
			<path id="path74_5_" class="st3" d="M143.549,243.57h87.12l-37.494-115.224c-1.919-5.895-10.282-5.895-12.27,0L143.549,243.57
				L143.549,243.57z"/>
			<path id="path82_12_" class="st4" d="M442.097,243.57L442.097,243.57l18.873,58.126c1.714,5.278-0.137,11.104-4.661,14.394
				L292.778,434.892L442.097,243.57L442.097,243.57z"/>
			<path id="path86_5_" class="st3" d="M442.097,243.57h-87.12l37.425-115.224c1.919-5.895,10.282-5.895,12.27,0L442.097,243.57
				L442.097,243.57z"/>
			<polygon class="st5" points="292.778,434.892 354.977,243.57 442.097,243.57 			"/>
			<polygon class="st5" points="292.778,434.892 143.549,243.57 230.669,243.57 			"/>
		</g>
	</g>
</g>
<g id="spacing_guides" xmlns:sketch="http://www.bohemiancoding.com/sketch/ns" class="st14">
	<path id="path40_32_" sketch:type="MSShapeGroup" class="st15" d="M-1,0v124h1268V0H-1L-1,0z"/>
	<path id="path40_31_" sketch:type="MSShapeGroup" class="st15" d="M-1,435v124h1268V435H-1L-1,435z"/>
	<path id="path40_30_" sketch:type="MSShapeGroup" class="st15" d="M261.69,434.551h62v-310h-62V434.551L261.69,434.551z"/>
	<path id="path40_29_" sketch:type="MSShapeGroup" class="st15" d="M462.2,560h62V-1h-62V560L462.2,560z"/>
	<text transform="matrix(1 0 0 1 256.2529 195)" class="st16 st18 st19">H: 2.5 x</text>
	<text transform="matrix(1 0 0 1 468.4727 282.832)" class="st16 st18 st19">1/2 x</text>
	<text transform="matrix(1 0 0 1 621.2881 500.4978)" class="st16 st18 st19">1x</text>
	<text transform="matrix(1 0 0 1 621.2881 65.4988)" class="st16 st18 st19">1x</text>
	<path id="path40_27_" sketch:type="MSShapeGroup" class="st15" d="M0,560h124V-1H0V560L0,560z"/>
	<text transform="matrix(1 0 0 1 51.2881 282.832)" class="st16 st18 st19">1x</text>
	<path id="path40_3_" sketch:type="MSShapeGroup" class="st15" d="M1142,560h124V-1h-124V560L1142,560z"/>
	<text transform="matrix(1 0 0 1 1191.2881 282.832)" class="st16 st18 st19">1x</text>
</g>
</svg>

<?xml version="1.0" encoding="UTF-8" standalone="no"?>
<!-- Generator: Adobe Illustrator 24.2.1, SVG Export Plug-In . SVG Version: 6.00 Build 0)  -->

<svg
   version="1.1"
   x="0px"
   y="0px"
   viewBox="0 0 337.62408 310.96725"
   xml:space="preserve"
   id="svg50"
   sodipodi:docname="gitlab.svg"
   width="337.62408"
   height="310.96725"
   inkscape:version="1.2.1 (9c6d41e410, 2022-07-14, custom)"
   xmlns:inkscape="http://www.inkscape.org/namespaces/inkscape"
   xmlns:sodipodi="http://sodipodi.sourceforge.net/DTD/sodipodi-0.dtd"
   xmlns="http://www.w3.org/2000/svg"
   xmlns:svg="http://www.w3.org/2000/svg"
   xmlns:sketch="http://www.bohemiancoding.com/sketch/ns"><defs
   id="defs54">
	

		
		
	</defs><sodipodi:namedview
   id="namedview52"
   pagecolor="#ffffff"
   bordercolor="#666666"
   borderopacity="1.0"
   inkscape:showpageshadow="2"
   inkscape:pageopacity="0.0"
   inkscape:pagecheckerboard="0"
   inkscape:deskcolor="#d1d1d1"
   showgrid="false"
   inkscape:zoom="1.0718799"
   inkscape:cx="380.63965"
   inkscape:cy="155.80103"
   inkscape:window-width="3840"
   inkscape:window-height="2083"
   inkscape:window-x="0"
   inkscape:window-y="40"
   inkscape:window-maximized="1"
   inkscape:current-layer="svg50" />
<style
   type="text/css"
   id="style2">
	.st0{fill:#FAFAFA;}
	.st1{fill:#F0F0F0;}
	.st2{fill:#FFFFFF;}
	.st3{fill:#E24329;}
	.st4{fill:#FCA326;}
	.st5{fill:#FC6D26;}
	.st6{fill:#8C929D;}
	.st7{fill:#2E2E2E;}
	.st8{fill:none;stroke:#FCA326;stroke-width:16;stroke-linecap:round;stroke-linejoin:round;stroke-miterlimit:10;}
	.st9{fill:none;stroke:#FC6D26;stroke-width:16;stroke-linecap:round;stroke-linejoin:round;stroke-miterlimit:10;}
	.st10{fill:none;stroke:#E24329;stroke-width:16;stroke-linecap:round;stroke-linejoin:round;stroke-miterlimit:10;}
	.st11{fill:none;stroke:#F0F0F0;stroke-miterlimit:10;}
	.st12{fill:#231F20;}
	.st13{fill:none;stroke:#231F20;stroke-width:16;stroke-linecap:round;stroke-linejoin:round;stroke-miterlimit:10;}
	.st14{display:none;}
	.st15{display:inline;opacity:0.1;fill:#E828E3;}
	.st16{display:inline;}
	.st17{opacity:0.1;fill:#E828E3;}
	.st18{font-family:'SourceSansPro-Semibold';}
	.st19{font-size:24px;}
	.st20{display:inline;fill:#DB3B21;}
	.st21{display:inline;fill:#FC6D26;}
	.st22{display:inline;fill:#2E2E2E;}
	.st23{display:inline;fill:#6E49CB;}
	.st24{display:inline;fill:#380D75;}
	.st25{display:inline;fill:#FCA121;}
	.st26{opacity:0.6;fill:none;stroke:#231F20;stroke-width:2;stroke-miterlimit:10;stroke-dasharray:12,6;}
	.st27{fill:none;stroke:#444444;stroke-width:1.5339;stroke-miterlimit:10;}
</style>
<g
   id="g26"
   transform="translate(-123.97696,-123.92475)">
			<path
   id="path50_5_"
   class="st3"
   d="m 292.778,434.892 v 0 L 354.977,243.57 H 230.669 Z" />
			<path
   id="path66_12_"
   class="st4"
   d="m 143.549,243.57 v 0 l -18.941,58.126 c -1.714,5.278 0.137,11.104 4.661,14.394 l 163.509,118.801 z" />
			<path
   id="path74_5_"
   class="st3"
   d="m 143.549,243.57 h 87.12 L 193.175,128.346 c -1.919,-5.895 -10.282,-5.895 -12.27,0 z" />
			<path
   id="path82_12_"
   class="st4"
   d="m 442.097,243.57 v 0 l 18.873,58.126 c 1.714,5.278 -0.137,11.104 -4.661,14.394 L 292.778,434.892 Z" />
			<path
   id="path86_5_"
   class="st3"
   d="m 442.097,243.57 h -87.12 l 37.425,-115.224 c 1.919,-5.895 10.282,-5.895 12.27,0 z" />
			<polygon
   class="st5"
   points="292.778,434.892 354.977,243.57 442.097,243.57 "
   id="polygon22" />
			<polygon
   class="st5"
   points="292.778,434.892 143.549,243.57 230.669,243.57 "
   id="polygon24" />
		</g>
<g
   id="spacing_guides"
   class="st14"
   transform="translate(-123.97696,-123.92475)">
	<path
   id="path40_32_"
   sketch:type="MSShapeGroup"
   class="st15"
   d="M -1,0 V 124 H 1267 V 0 Z" />
	<path
   id="path40_31_"
   sketch:type="MSShapeGroup"
   class="st15"
   d="M -1,435 V 559 H 1267 V 435 Z" />
	<path
   id="path40_30_"
   sketch:type="MSShapeGroup"
   class="st15"
   d="m 261.69,434.551 h 62 v -310 h -62 z" />
	<path
   id="path40_29_"
   sketch:type="MSShapeGroup"
   class="st15"
   d="m 462.2,560 h 62 V -1 h -62 z" />
	<text
   transform="translate(256.2529,195)"
   class="st16 st18 st19"
   id="text35">H: 2.5 x</text>
	<text
   transform="translate(468.4727,282.832)"
   class="st16 st18 st19"
   id="text37">1/2 x</text>
	<text
   transform="translate(621.2881,500.4978)"
   class="st16 st18 st19"
   id="text39">1x</text>
	<text
   transform="translate(621.2881,65.4988)"
   class="st16 st18 st19"
   id="text41">1x</text>
	<path
   id="path40_27_"
   sketch:type="MSShapeGroup"
   class="st15"
   d="M 0,560 H 124 V -1 H 0 Z" />
	<text
   transform="translate(51.2881,282.832)"
   class="st16 st18 st19"
   id="text44">1x</text>
	<path
   id="path40_3_"
   sketch:type="MSShapeGroup"
   class="st15"
   d="m 1142,560 h 124 V -1 h -124 z" />
	<text
   transform="translate(1191.2881,282.832)"
   class="st16 st18 st19"
   id="text47">1x</text>
</g>
</svg>
